X:1
T:That Little Old Red Shawl
T:That Little Old Red Shawl
T:Anon.
C:Anon.
%%score [ 1 2 3 4 ]
L:1/8
M:4/4
K:Ab
V:1 treble-8 nm="Soprano"
V:2 treble-8 nm="Alto"
V:3 bass nm="Tenor"
V:4 bass nm="Bass"
V:1
 e d | d/ c3/2 =B c c3 c | =d/ d3/2 d d d3 d | _d/ d3/2 d d d f e3/2 =d/ | e6 e _d | %5
w: Oh, that|lit- tle old red shawl, That|lit- tle old red shawl. That|lit- tle old red shawl my moth- er|wore. It was|
 d c =B c c2 c c | =d d d d !fermata!d3 d | _d/ d3/2 d d d f e/ d3/2 | c6 |] %9
w: tat- tered, it was torn, it showed|signs of be- ing worn, That|lit- tle old red shawl my moth- er|wore.|
V:2
 c B | B/ A3/2 G A E3 A | B/ F3/2 =E F B3 A | G/ G3/2 G F _E d c3/2 =B/ | c6 c _B | %5
w: Oh, that|lit- tle old red shawl, That|lit- tle old red shawl. That|lit- tle old red shawl my moth- er|wore. It was|
 B A G A E2 A =A | B F =E F !fermata!B3 _A | G/ G3/2 G F _E d c/ B3/2 | A6 |] %9
w: tat- tered, it was torn, it showed|signs of be- ing worn, That|lit- tle old red shawl my moth- er|wore.|
V:3
 G, G, | E,/ E,3/2 E, E, A,3 E, | A,/ A,3/2 G, A, F,3 F, | B,/ B,3/2 B, A, G, G, E,3/2 E,/ | %4
w: Oh, that|lit- tle old red shawl, That|lit- tle old red shawl. That|lit- tle old red shawl my moth- er|
 A, A, G, F, E,2 G, G, | E, E, E, E, A,2 A, _G, | F, A, =G, A, !fermata!F,3 F, | %7
w: wore, my moth- er wore. It was|tat- tered, it was torn, it showed|signs of be- ing worn, That|
 B,/ B,3/2 B, A, G, G, G,/ G,3/2 | E,6 |] %9
w: lit- tle old red shawl my moth- er|wore.|
V:4
 E, E, | A,,/ A,,3/2 A,, A,, A,,3 A,, | B,,/ B,,3/2 B,, B,, B,,3 B,, | %3
w: Oh, that|lit- tle old red shawl, That|lit- tle old red shawl. That|
 E,/ E,3/2 E, B,, E, E, E,3/2 E,/ | A,,6 E, E, | A,, A,, A,, A,, A,,2 E, E, | %6
w: lit- tle old red shawl my moth- er|wore. It was|tat- tered, it was torn, it showed|
 B,, B,, B,, B,, !fermata!B,,3 B,, | E,/ E,3/2 E, B,, E, E, E,/ E,3/2 | A,,6 |] %9
w: signs of be- ing worn, That|lit- tle old red shawl my moth- er|wore.|

